X:5500
T:Frau Nachtigall (Kanon)
R:
O:
S:source
B:Frau Nachtigall (Straburg - 1928)
Z:<anamnese@caramail.com> -- http://anamnese.fr.st
N:(Der Kanon ist langsam zu singen)
N:p.3
M:C
L:1/4
Q:1/4=150
K:Eb
V:1
 B, | EE/B,/ EG | FE/D/ EB, | GG/F/ GB | AG/F/ GB |
 E/G/ G/B/ Be | (e>B) Bf | e>d e/B/ G/F/ | (B,F/) E :|
V:2
z | z4 | z3 B, | EE/B,/ EG | FE/D/ EB, | GG/F/ GB | AG/F/ GB |
 E/G/ G/B/ Be | (e>B) Bf | e>d e/B/ G/F/ | (B,F/) E :|
V:3
z | z4 |  z4 |  z4 | z3 B, | EE/B,/ EG | FE/D/ EB, | GG/F/ GB | AG/F/ GB |
 E/G/ G/B/ Be | (e>B) Bf | e>d e/B/ G/F/ | (B,F/) E :|
V:4
z | z4 |  z4 |  z4 |   z4 |  z4 | z3  B, | EE/B,/ EG | FE/D/ EB, | GG/F/ GB | AG/F/ GB |
 E/G/ G/B/ Be | (e>B) Bf | e>d e/B/ G/F/ | (B,F/) E :|
